test/test_files/saturation.3dl
# Generated by Nuke for flame
# Dimensions 17x17x17
# Input bit depth 10
# Output bit depth 10
0 128 256 384 512 639 767 895 1023
0 0 0
0 0 187
0 0 374
0 0 562
0 0 749
0 0 936
0 0 1023
0 0 1023
0 0 1023
0 146 0
0 141 141
0 137 329
0 132 516
0 128 703
0 123 890
0 118 1023
0 114 1023
0 109 1023
0 292 0
0 288 96
0 283 283
0 278 470
0 274 657
0 269 845
0 264 1023
0 260 1023
0 255 1023
0 438 0
0 434 50
0 429 237
0 424 424
0 420 612
0 415 799
0 411 986
0 406 1023
0 401 1023
0 584 0
0 580 4
0 575 191
0 570 379
0 566 566
0 561 753
0 557 940
0 552 1023
0 547 1023
0 730 0
0 726 0
0 721 146
0 717 333
0 712 520
0 707 707
0 703 895
0 698 1023
0 693 1023
0 876 0
0 872 0
0 867 100
0 863 287
0 858 474
0 853 662
0 849 849
0 844 1023
0 840 1023
0 1023 0
0 1018 0
0 1013 54
0 1009 241
0 1004 429
0 999 616
0 995 803
0 990 990
0 986 1023
0 1023 0
0 1023 0
0 1023 8
0 1023 196
0 1023 383
0 1023 570
0 1023 757
0 1023 944
0 1023 1023
178 0 0
174 0 174
169 0 361
164 0 548
160 0 735
155 0 922
151 0 1023
146 0 1023
141 0 1023
132 132 0
128 128 128
123 123 315
119 119 502
114 114 689
109 109 877
105 105 1023
100 100 1023
96 96 1023
87 279 0
82 274 82
78 269 269
73 265 457
68 260 644
64 256 831
59 251 1018
54 246 1023
50 242 1023
41 425 0
36 420 36
32 415 224
27 411 411
23 406 598
18 402 785
13 397 972
9 392 1023
4 388 1023
0 571 0
0 566 0
0 561 178
0 557 365
0 552 552
0 548 739
0 543 927
0 538 1023
0 534 1023
0 717 0
0 712 0
0 708 132
0 703 319
0 698 507
0 694 694
0 689 881
0 685 1023
0 680 1023
0 863 0
0 858 0
0 854 86
0 849 274
0 844 461
0 840 648
0 835 835
0 831 1022
0 826 1023
0 1009 0
0 1004 0
0 1000 41
0 995 228
0 990 415
0 986 602
0 981 789
0 977 977
0 972 1023
0 1023 0
0 1023 0
0 1023 0
0 1023 182
0 1023 369
0 1023 556
0 1023 744
0 1023 931
0 1023 1023
356 0 0
352 0 160
347 0 347
343 0 534
338 0 722
333 0 909
329 0 1023
324 0 1023
320 0 1023
311 119 0
306 114 114
301 110 301
297 105 489
292 100 676
288 96 863
283 91 1023
278 87 1023
274 82 1023
265 265 0
260 260 69
256 256 256
251 251 443
247 247 630
242 242 817
237 237 1005
233 233 1023
228 228 1023
219 411 0
215 406 23
210 402 210
205 397 397
201 393 584
196 388 772
192 383 959
187 379 1023
182 374 1023
173 557 0
169 553 0
164 548 164
160 543 351
155 539 539
150 534 726
146 529 913
141 525 1023
137 520 1023
128 703 0
123 699 0
119 694 119
114 689 306
109 685 493
105 680 680
100 676 867
95 671 1023
91 666 1023
82 849 0
77 845 0
73 840 73
68 835 260
64 831 447
59 826 634
54 822 822
50 817 1009
45 812 1023
36 995 0
32 991 0
27 986 27
22 981 214
18 977 401
13 972 589
9 968 776
4 963 963
0 958 1023
0 1023 0
0 1023 0
0 1023 0
0 1023 169
0 1023 356
0 1023 543
0 1023 730
0 1023 917
0 1023 1023
535 0 0
530 0 146
525 0 334
521 0 521
516 0 708
512 0 895
507 0 1023
502 0 1023
498 0 1023
489 105 0
484 101 101
480 96 288
475 91 475
470 87 662
466 82 850
461 78 1023
457 73 1023
452 68 1023
443 251 0
439 247 55
434 242 242
429 238 429
425 233 617
420 228 804
416 224 991
411 219 1023
406 215 1023
397 397 0
393 393 9
388 388 196
384 384 384
379 379 571
374 374 758
370 370 945
365 365 1023
361 361 1023
352 544 0
347 539 0
342 534 151
338 530 338
333 525 525
329 520 712
324 516 899
319 511 1023
315 507 1023
306 690 0
301 685 0
297 680 105
292 676 292
288 671 479
283 667 667
278 662 854
274 657 1023
269 653 1023
260 836 0
256 831 0
251 826 59
246 822 246
242 817 434
237 813 621
233 808 808
228 803 995
223 799 1023
214 982 0
210 977 0
205 973 13
201 968 201
196 963 388
191 959 575
187 954 762
182 949 949
178 945 1023
169 1023 0
164 1023 0
160 1023 0
155 1023 155
150 1023 342
146 1023 529
141 1023 717
136 1023 904
132 1023 1023
713 0 0
708 0 133
704 0 320
699 0 507
694 0 694
690 0 882
685 0 1023
681 0 1023
676 0 1023
667 92 0
663 87 87
658 83 274
653 78 462
649 73 649
644 69 836
640 64 1023
635 59 1023
630 55 1023
621 238 0
617 233 41
612 229 229
608 224 416
603 219 603
598 215 790
594 210 977
589 206 1023
585 201 1023
576 384 0
571 379 0
566 375 183
562 370 370
557 365 557
553 361 744
548 356 932
543 352 1023
539 347 1023
530 530 0
525 525 0
521 521 137
516 516 324
512 512 512
507 507 699
502 502 886
498 498 1023
493 493 1023
484 676 0
480 671 0
475 667 91
470 662 279
466 658 466
461 653 653
457 648 840
452 644 1023
447 639 1023
438 822 0
434 817 0
429 813 46
425 808 233
420 804 420
415 799 607
411 794 794
406 790 982
402 785 1023
393 968 0
388 964 0
383 959 0
379 954 187
374 950 374
370 945 561
365 940 749
360 936 936
356 931 1023
347 1023 0
342 1023 0
338 1023 0
333 1023 141
329 1023 329
324 1023 516
319 1023 703
315 1023 890
310 1023 1023
891 0 0
887 0 119
882 0 306
877 0 494
873 0 681
868 0 868
863 0 1023
859 0 1023
854 0 1023
845 78 0
841 74 74
836 69 261
832 64 448
827 60 635
822 55 822
818 50 1010
813 46 1023
809 41 1023
800 224 0
795 220 28
790 215 215
786 210 402
781 206 589
777 201 777
772 197 964
767 192 1023
763 187 1023
754 370 0
749 366 0
745 361 169
740 356 356
735 352 544
731 347 731
726 343 918
722 338 1023
717 333 1023
708 516 0
704 512 0
699 507 124
694 503 311
690 498 498
685 493 685
681 489 872
676 484 1023
671 479 1023
662 662 0
658 658 0
653 653 78
649 649 265
644 644 452
639 639 639
635 635 827
630 630 1014
626 626 1023
617 808 0
612 804 0
607 799 32
603 795 219
598 790 406
594 785 594
589 781 781
584 776 968
580 772 1023
571 955 0
566 950 0
562 945 0
557 941 173
553 936 361
548 932 548
543 927 735
539 922 922
534 918 1023
525 1023 0
521 1023 0
516 1023 0
511 1023 128
507 1023 315
502 1023 502
498 1023 689
493 1023 877
488 1023 1023
1023 0 0
1023 0 106
1023 0 293
1023 0 480
1023 0 667
1023 0 854
1023 0 1023
1023 0 1023
1023 0 1023
1023 65 0
1019 60 60
1014 55 247
1010 51 434
1005 46 622
1001 42 809
996 37 996
991 32 1023
987 28 1023
978 211 0
973 206 14
969 201 201
964 197 389
959 192 576
955 188 763
950 183 950
946 178 1023
941 174 1023
932 357 0
928 352 0
923 347 156
918 343 343
914 338 530
909 334 717
904 329 904
900 324 1023
895 320 1023
886 503 0
882 498 0
877 494 110
873 489 297
868 484 484
863 480 672
859 475 859
854 470 1023
850 466 1023
841 649 0
836 644 0
831 640 64
827 635 251
822 630 439
818 626 626
813 621 813
808 617 1000
804 612 1023
795 795 0
790 790 0
786 786 18
781 781 206
776 776 393
772 772 580
767 767 767
763 763 954
758 758 1023
749 941 0
745 936 0
740 932 0
735 927 160
731 923 347
726 918 534
722 913 722
717 909 909
712 904 1023
703 1023 0
699 1023 0
694 1023 0
690 1023 114
685 1023 301
680 1023 489
676 1023 676
671 1023 863
667 1023 1023
1023 0 0
1023 0 92
1023 0 279
1023 0 467
1023 0 654
1023 0 841
1023 0 1023
1023 0 1023
1023 0 1023
1023 51 0
1023 46 46
1023 42 234
1023 37 421
1023 33 608
1023 28 795
1023 23 982
1023 19 1023
1023 14 1023
1023 197 0
1023 192 1
1023 188 188
1023 183 375
1023 179 562
1023 174 749
1023 169 937
1023 165 1023
1023 160 1023
1023 343 0
1023 338 0
1023 334 142
1023 329 329
1023 325 516
1023 320 704
1023 315 891
1023 311 1023
1023 306 1023
1023 489 0
1023 485 0
1023 480 96
1023 475 284
1023 471 471
1023 466 658
1023 462 845
1023 457 1023
1023 452 1023
1019 635 0
1014 631 0
1010 626 51
1005 621 238
1000 617 425
996 612 612
991 608 799
987 603 987
982 598 1023
973 781 0
969 777 0
964 772 5
959 767 192
955 763 379
950 758 566
945 754 754
941 749 941
936 744 1023
927 927 0
923 923 0
918 918 0
914 914 146
909 909 334
904 904 521
900 900 708
895 895 895
891 891 1023
882 1023 0
877 1023 0
872 1023 0
868 1023 101
863 1023 288
859 1023 475
854 1023 662
849 1023 849
845 1023 1023
1023 0 0
1023 0 79
1023 0 266
1023 0 453
1023 0 640
1023 0 827
1023 0 1015
1023 0 1023
1023 0 1023
1023 37 0
1023 33 33
1023 28 220
1023 24 407
1023 19 594
1023 14 782
1023 10 969
1023 5 1023
1023 0 1023
1023 183 0
1023 179 0
1023 174 174
1023 170 361
1023 165 549
1023 160 736
1023 156 923
1023 151 1023
1023 147 1023
1023 330 0
1023 325 0
1023 320 128
1023 316 316
1023 311 503
1023 306 690
1023 302 877
1023 297 1023
1023 293 1023
1023 476 0
1023 471 0
1023 466 83
1023 462 270
1023 457 457
1023 453 644
1023 448 832
1023 443 1019
1023 439 1023
1023 622 0
1023 617 0
1023 612 37
1023 608 224
1023 603 411
1023 599 599
1023 594 786
1023 589 973
1023 585 1023
1023 768 0
1023 763 0
1023 759 0
1023 754 178
1023 749 366
1023 745 553
1023 740 740
1023 735 927
1023 731 1023
1023 914 0
1023 909 0
1023 905 0
1023 900 133
1023 895 320
1023 891 507
1023 886 694
1023 882 882
1023 877 1023
1023 1023 0
1023 1023 0
1023 1023 0
1023 1023 87
1023 1023 274
1023 1023 461
1023 1023 649
1023 1023 836
1023 1023 1023
