test/test_files/saturation.3dl
# Generated by Nuke for flame
# Dimensions 17x17x17
# Input bit depth 10
# Output bit depth 10
0 256 512 767 1023
0 0 0
0 0 374
0 0 749
0 0 1023
0 0 1023
0 292 0
0 283 283
0 274 657
0 264 1023
0 255 1023
0 584 0
0 575 191
0 566 566
0 557 940
0 547 1023
0 876 0
0 867 100
0 858 474
0 849 849
0 840 1023
0 1023 0
0 1023 8
0 1023 383
0 1023 757
0 1023 1023
356 0 0
347 0 347
338 0 722
329 0 1023
320 0 1023
265 265 0
256 256 256
247 247 630
237 237 1005
228 228 1023
173 557 0
164 548 164
155 539 539
146 529 913
137 520 1023
82 849 0
73 840 73
64 831 447
54 822 822
45 812 1023
0 1023 0
0 1023 0
0 1023 356
0 1023 730
0 1023 1023
713 0 0
704 0 320
694 0 694
685 0 1023
676 0 1023
621 238 0
612 229 229
603 219 603
594 210 977
585 201 1023
530 530 0
521 521 137
512 512 512
502 502 886
493 493 1023
438 822 0
429 813 46
420 804 420
411 794 794
402 785 1023
347 1023 0
338 1023 0
329 1023 329
319 1023 703
310 1023 1023
1023 0 0
1023 0 293
1023 0 667
1023 0 1023
1023 0 1023
978 211 0
969 201 201
959 192 576
950 183 950
941 174 1023
886 503 0
877 494 110
868 484 484
859 475 859
850 466 1023
795 795 0
786 786 18
776 776 393
767 767 767
758 758 1023
703 1023 0
694 1023 0
685 1023 301
676 1023 676
667 1023 1023
1023 0 0
1023 0 266
1023 0 640
1023 0 1015
1023 0 1023
1023 183 0
1023 174 174
1023 165 549
1023 156 923
1023 147 1023
1023 476 0
1023 466 83
1023 457 457
1023 448 832
1023 439 1023
1023 768 0
1023 759 0
1023 749 366
1023 740 740
1023 731 1023
1023 1023 0
1023 1023 0
1023 1023 274
1023 1023 649
1023 1023 1023
