test/test_files/saturation.3dl
# Generated by Nuke for flame
# Dimensions 17x17x17
# Input bit depth 10
# Output bit depth 10
0 64 128 192 256 320 384 448 512 575 639 703 767 831 895 959 1023 
0 0 0
0 0 94
0 0 187
0 0 281
0 0 374
0 0 468
0 0 562
0 0 655
0 0 749
0 0 842
0 0 936
0 0 1023
0 0 1023
0 0 1023
0 0 1023
0 0 1023
0 0 1023
0 73 0
0 71 71
0 68 164
0 66 258
0 64 352
0 62 445
0 59 539
0 57 632
0 55 726
0 52 820
0 50 913
0 48 1007
0 45 1023
0 43 1023
0 41 1023
0 38 1023
0 36 1023
0 146 0
0 144 48
0 141 141
0 139 235
0 137 329
0 135 422
0 132 516
0 130 609
0 128 703
0 125 797
0 123 890
0 121 984
0 118 1023
0 116 1023
0 114 1023
0 111 1023
0 109 1023
0 219 0
0 217 25
0 214 119
0 212 212
0 210 306
0 208 399
0 205 493
0 203 587
0 201 680
0 198 774
0 196 867
0 194 961
0 191 1023
0 189 1023
0 187 1023
0 185 1023
0 182 1023
0 292 0
0 290 2
0 288 96
0 285 189
0 283 283
0 281 377
0 278 470
0 276 564
0 274 657
0 271 751
0 269 845
0 267 938
0 264 1023
0 262 1023
0 260 1023
0 258 1023
0 255 1023
0 365 0
0 363 0
0 361 73
0 358 166
0 356 260
0 354 354
0 351 447
0 349 541
0 347 634
0 344 728
0 342 822
0 340 915
0 338 1009
0 335 1023
0 333 1023
0 331 1023
0 328 1023
0 438 0
0 436 0
0 434 50
0 431 144
0 429 237
0 427 331
0 424 424
0 422 518
0 420 612
0 417 705
0 415 799
0 413 892
0 411 986
0 408 1023
0 406 1023
0 404 1023
0 401 1023
0 511 0
0 509 0
0 507 27
0 504 121
0 502 214
0 500 308
0 497 402
0 495 495
0 493 589
0 491 682
0 488 776
0 486 870
0 484 963
0 481 1023
0 479 1023
0 477 1023
0 474 1023
0 584 0
0 582 0
0 580 4
0 577 98
0 575 191
0 573 285
0 570 379
0 568 472
0 566 566
0 564 659
0 561 753
0 559 847
0 557 940
0 554 1023
0 552 1023
0 550 1023
0 547 1023
0 657 0
0 655 0
0 653 0
0 650 75
0 648 169
0 646 262
0 643 356
0 641 449
0 639 543
0 637 637
0 634 730
0 632 824
0 630 917
0 627 1011
0 625 1023
0 623 1023
0 620 1023
0 730 0
0 728 0
0 726 0
0 723 52
0 721 146
0 719 239
0 717 333
0 714 427
0 712 520
0 710 614
0 707 707
0 705 801
0 703 895
0 700 988
0 698 1023
0 696 1023
0 693 1023
0 803 0
0 801 0
0 799 0
0 796 29
0 794 123
0 792 216
0 790 310
0 787 404
0 785 497
0 783 591
0 780 684
0 778 778
0 776 872
0 773 965
0 771 1023
0 769 1023
0 767 1023
0 876 0
0 874 0
0 872 0
0 870 6
0 867 100
0 865 194
0 863 287
0 860 381
0 858 474
0 856 568
0 853 662
0 851 755
0 849 849
0 846 942
0 844 1023
0 842 1023
0 840 1023
0 949 0
0 947 0
0 945 0
0 943 0
0 940 77
0 938 171
0 936 264
0 933 358
0 931 451
0 929 545
0 926 639
0 924 732
0 922 826
0 920 920
0 917 1013
0 915 1023
0 913 1023
0 1023 0
0 1020 0
0 1018 0
0 1016 0
0 1013 54
0 1011 148
0 1009 241
0 1006 335
0 1004 429
0 1002 522
0 999 616
0 997 709
0 995 803
0 993 897
0 990 990
0 988 1023
0 986 1023
0 1023 0
0 1023 0
0 1023 0
0 1023 0
0 1023 31
0 1023 125
0 1023 219
0 1023 312
0 1023 406
0 1023 499
0 1023 593
0 1023 687
0 1023 780
0 1023 874
0 1023 967
0 1023 1023
0 1023 1023
0 1023 0
0 1023 0
0 1023 0
0 1023 0
0 1023 8
0 1023 102
0 1023 196
0 1023 289
0 1023 383
0 1023 476
0 1023 570
0 1023 664
0 1023 757
0 1023 851
0 1023 944
0 1023 1023
0 1023 1023
89 0 0
87 0 87
85 0 180
82 0 274
80 0 368
78 0 461
75 0 555
73 0 648
71 0 742
68 0 836
66 0 929
64 0 1023
61 0 1023
59 0 1023
57 0 1023
55 0 1023
52 0 1023
66 66 0
64 64 64
62 62 158
59 59 251
57 57 345
55 55 438
52 52 532
50 50 626
48 48 719
45 45 813
43 43 906
41 41 1000
39 39 1023
36 36 1023
34 34 1023
32 32 1023
29 29 1023
43 139 0
41 137 41
39 135 135
36 132 228
34 130 322
32 128 415
30 125 509
27 123 603
25 121 696
23 119 790
20 116 883
18 114 977
16 112 1023
13 109 1023
11 107 1023
9 105 1023
6 102 1023
21 212 0
18 210 18
16 208 112
14 205 205
11 203 299
9 201 393
7 198 486
4 196 580
2 194 673
0 192 767
0 189 861
0 187 954
0 185 1023
0 182 1023
0 180 1023
0 178 1023
0 175 1023
0 285 0
0 283 0
0 281 89
0 278 183
0 276 276
0 274 370
0 272 463
0 269 557
0 267 651
0 265 744
0 262 838
0 260 931
0 258 1023
0 255 1023
0 253 1023
0 251 1023
0 248 1023
0 358 0
0 356 0
0 354 66
0 351 160
0 349 253
0 347 347
0 345 440
0 342 534
0 340 628
0 338 721
0 335 815
0 333 908
0 331 1002
0 328 1023
0 326 1023
0 324 1023
0 322 1023
0 431 0
0 429 0
0 427 43
0 425 137
0 422 230
0 420 324
0 418 418
0 415 511
0 413 605
0 411 698
0 408 792
0 406 886
0 404 979
0 401 1023
0 399 1023
0 397 1023
0 395 1023
0 504 0
0 502 0
0 500 20
0 498 114
0 495 208
0 493 301
0 491 395
0 488 488
0 486 582
0 484 676
0 481 769
0 479 863
0 477 956
0 474 1023
0 472 1023
0 470 1023
0 468 1023
0 577 0
0 575 0
0 573 0
0 571 91
0 568 185
0 566 278
0 564 372
0 561 465
0 559 559
0 557 653
0 554 746
0 552 840
0 550 933
0 548 1023
0 545 1023
0 543 1023
0 541 1023
0 651 0
0 648 0
0 646 0
0 644 68
0 641 162
0 639 255
0 637 349
0 634 443
0 632 536
0 630 630
0 627 723
0 625 817
0 623 911
0 621 1004
0 618 1023
0 616 1023
0 614 1023
0 724 0
0 721 0
0 719 0
0 717 45
0 714 139
0 712 233
0 710 326
0 707 420
0 705 513
0 703 607
0 701 701
0 698 794
0 696 888
0 694 981
0 691 1023
0 689 1023
0 687 1023
0 797 0
0 794 0
0 792 0
0 790 22
0 787 116
0 785 210
0 783 303
0 780 397
0 778 490
0 776 584
0 774 678
0 771 771
0 769 865
0 767 958
0 764 1023
0 762 1023
0 760 1023
0 870 0
0 867 0
0 865 0
0 863 0
0 860 93
0 858 187
0 856 280
0 854 374
0 851 468
0 849 561
0 847 655
0 844 748
0 842 842
0 840 936
0 837 1023
0 835 1023
0 833 1023
0 943 0
0 940 0
0 938 0
0 936 0
0 933 70
0 931 164
0 929 257
0 927 351
0 924 445
0 922 538
0 920 632
0 917 726
0 915 819
0 913 913
0 910 1006
0 908 1023
0 906 1023
0 1016 0
0 1013 0
0 1011 0
0 1009 0
0 1006 47
0 1004 141
0 1002 235
0 1000 328
0 997 422
0 995 515
0 993 609
0 990 703
0 988 796
0 986 890
0 983 983
0 981 1023
0 979 1023
0 1023 0
0 1023 0
0 1023 0
0 1023 0
0 1023 25
0 1023 118
0 1023 212
0 1023 305
0 1023 399
0 1023 493
0 1023 586
0 1023 680
0 1023 773
0 1023 867
0 1023 961
0 1023 1023
0 1023 1023
0 1023 0
0 1023 0
0 1023 0
0 1023 0
0 1023 2
0 1023 95
0 1023 189
0 1023 282
0 1023 376
0 1023 470
0 1023 563
0 1023 657
0 1023 750
0 1023 844
0 1023 938
0 1023 1023
0 1023 1023
178 0 0
176 0 80
174 0 174
171 0 267
169 0 361
167 0 454
164 0 548
162 0 642
160 0 735
157 0 829
155 0 922
153 0 1016
151 0 1023
148 0 1023
146 0 1023
144 0 1023
141 0 1023
155 59 0
153 57 57
151 55 151
148 53 244
146 50 338
144 48 432
142 46 525
139 43 619
137 41 712
135 39 806
132 36 900
130 34 993
128 32 1023
125 29 1023
123 27 1023
121 25 1023
118 23 1023
132 132 0
130 130 34
128 128 128
126 126 221
123 123 315
121 121 409
119 119 502
116 116 596
114 114 689
112 112 783
109 109 877
107 107 970
105 105 1023
103 103 1023
100 100 1023
98 98 1023
96 96 1023
110 206 0
107 203 11
105 201 105
103 199 199
100 196 292
98 194 386
96 192 479
93 189 573
91 187 667
89 185 760
87 182 854
84 180 947
82 178 1023
80 176 1023
77 173 1023
75 171 1023
73 169 1023
87 279 0
84 276 0
82 274 82
80 272 176
78 269 269
75 267 363
73 265 457
71 262 550
68 260 644
66 258 737
64 256 831
61 253 925
59 251 1018
57 249 1023
54 246 1023
52 244 1023
50 242 1023
64 352 0
62 349 0
59 347 59
57 345 153
55 342 246
52 340 340
50 338 434
48 335 527
45 333 621
43 331 714
41 329 808
39 326 902
36 324 995
34 322 1023
32 319 1023
29 317 1023
27 315 1023
41 425 0
39 422 0
36 420 36
34 418 130
32 415 224
29 413 317
27 411 411
25 408 504
23 406 598
20 404 692
18 402 785
16 399 879
13 397 972
11 395 1023
9 392 1023
6 390 1023
4 388 1023
18 498 0
16 495 0
14 493 14
11 491 107
9 488 201
7 486 294
4 484 388
2 482 482
0 479 575
0 477 669
0 475 762
0 472 856
0 470 950
0 468 1023
0 465 1023
0 463 1023
0 461 1023
0 571 0
0 568 0
0 566 0
0 564 84
0 561 178
0 559 271
0 557 365
0 555 459
0 552 552
0 550 646
0 548 739
0 545 833
0 543 927
0 541 1020
0 538 1023
0 536 1023
0 534 1023
0 644 0
0 641 0
0 639 0
0 637 61
0 635 155
0 632 249
0 630 342
0 628 436
0 625 529
0 623 623
0 621 717
0 618 810
0 616 904
0 614 997
0 611 1023
0 609 1023
0 607 1023
0 717 0
0 714 0
0 712 0
0 710 39
0 708 132
0 705 226
0 703 319
0 701 413
0 698 507
0 696 600
0 694 694
0 691 787
0 689 881
0 687 975
0 685 1023
0 682 1023
0 680 1023
0 790 0
0 788 0
0 785 0
0 783 16
0 781 109
0 778 203
0 776 296
0 774 390
0 771 484
0 769 577
0 767 671
0 764 764
0 762 858
0 760 952
0 758 1023
0 755 1023
0 753 1023
0 863 0
0 861 0
0 858 0
0 856 0
0 854 86
0 851 180
0 849 274
0 847 367
0 844 461
0 842 554
0 840 648
0 837 742
0 835 835
0 833 929
0 831 1022
0 828 1023
0 826 1023
0 936 0
0 934 0
0 931 0
0 929 0
0 927 64
0 924 157
0 922 251
0 920 344
0 917 438
0 915 532
0 913 625
0 911 719
0 908 812
0 906 906
0 904 1000
0 901 1023
0 899 1023
0 1009 0
0 1007 0
0 1004 0
0 1002 0
0 1000 41
0 997 134
0 995 228
0 993 321
0 990 415
0 988 509
0 986 602
0 984 696
0 981 789
0 979 883
0 977 977
0 974 1023
0 972 1023
0 1023 0
0 1023 0
0 1023 0
0 1023 0
0 1023 18
0 1023 111
0 1023 205
0 1023 299
0 1023 392
0 1023 486
0 1023 579
0 1023 673
0 1023 767
0 1023 860
0 1023 954
0 1023 1023
0 1023 1023
0 1023 0
0 1023 0
0 1023 0
0 1023 0
0 1023 0
0 1023 88
0 1023 182
0 1023 276
0 1023 369
0 1023 463
0 1023 556
0 1023 650
0 1023 744
0 1023 837
0 1023 931
0 1023 1023
0 1023 1023
267 0 0
265 0 73
263 0 167
260 0 260
258 0 354
256 0 448
254 0 541
251 0 635
249 0 728
247 0 822
244 0 916
242 0 1009
240 0 1023
237 0 1023
235 0 1023
233 0 1023
230 0 1023
244 53 0
242 50 50
240 48 144
238 46 238
235 43 331
233 41 425
231 39 518
228 37 612
226 34 706
224 32 799
221 30 893
219 27 986
217 25 1023
215 23 1023
212 20 1023
210 18 1023
